X: 264
T: Pa laopuo
%%abc-version 2.0
%%abcx-abcm2ps-target-version 5.9.1 (29 Sep 2008)
%%abc-creator hum2abc beta
%%abcx-conversion-date 2013/10/02 07:52:29
%%abc-edited-by Helmut Schaffrath
%%humdrum-veritas 1939157633
%%humdrum-veritas-data 2465181697
%%continueall 1
%%barnumbers 0
L: 1/8
M: 2/4
K: G
d2B d [I:setbarnb 1]| 
d2B2 | 
d d/ B/ A d | 
G ED2 | 
FA2B | 
dA2B | 
G F E B, | 
D4 |]  



